X: 1
T:Close to the Floor -- Jig
M:6/8
L:1/8
C:J. HAND
R:jig
B:Ryan's Mammoth Collection
N:86 441
Z:Contributed by Ray Davies,  ray:davies99.freeserve.co.uk
K:G
u(B/c/)|\
(d>g).e d>BG | .A(EF) G>DB, | G,B,D GBd | {d}cBc ABc |
(dg).e d>BG | A>(EF) G>DB, | G,B,D GAc | BGG G2:|
|:u(d/c/)|\
.B.d(g b).a.g | .f.e(d c).A.F | (DG).G (FA).A | (GB).B .A(Bc) |
.B(dg) b>ag- | g.f.e dBG | c>(ec) B>AG | .A(EF) G2:|
